rospo-dark/16x16/actions/retweet.svg

<svg height="16" viewBox="0 0 16 16" width="16" xmlns="http://www.w3.org/2000/svg"><path d="m5 1v2h7v5h-2l3 3 3-3h-2v-7zm-2 4-3 3h2v7h9v-2h-7v-5h2z" fill="#d3dae3"/></svg>

<?xml version="1.0" encoding="UTF-8" standalone="no"?>
<svg xmlns="http://www.w3.org/2000/svg" width="22" height="22" viewBox="0 0 22 22">
 <defs>
  <style type="text/css" id="current-color-scheme">
   .ColorScheme-Text { color:#d3dae3; } .ColorScheme-Highlight { color:#5294e2; }
  </style>
 </defs>
 <path style="fill:currentColor;opacity:1" class="ColorScheme-Text" transform="translate(3 3)" d="M 5 1 L 5 3 L 12 3 L 12 8 L 10 8 L 13 11 L 16 8 L 14 8 L 14 1 L 5 1 z M 3 5 L 0 8 L 2 8 L 2 15 L 11 15 L 11 13 L 4 13 L 4 8 L 6 8 L 3 5 z"/>
</svg>
